src/assets/svgs/refactor/story-value-openness.svg

<svg fill="none" height="27" viewBox="0 0 42 27" width="42" xmlns="http://www.w3.org/2000/svg" xmlns:xlink="http://www.w3.org/1999/xlink"><clipPath id="a"><path d="m0 0h42v27h-42z"/></clipPath><g clip-path="url(#a)" fill="#fff8f3"><path d="m28.3001 0c-2.6784 0-5.1745.775281-7.283 2.08989-2.1883-1.370789-4.6958-2.08989-7.3172-2.08989-7.55662 0-13.6999 6.05618-13.6999 13.5056 0 7.4495 6.14328 13.5056 13.6999 13.5056 2.6214 0 5.1289-.7191 7.3172-2.0899 2.1085 1.3147 4.6046 2.0899 7.283 2.0899 7.5566 0 13.6999-6.0561 13.6999-13.5056 0-7.44942-6.1433-13.5056-13.6999-13.5056zm-25.45071 13.5056c0-5.89886 4.86676-10.69661 10.85051-10.69661 1.7324 0 3.3964.39326 4.9123 1.1573-2.4733 2.44944-4.0119 5.82023-4.0119 9.53931 0 3.7191 1.5386 7.0899 4.0119 9.5393-1.5159.7641-3.1799 1.1573-4.9123 1.1573-5.98375 0-10.85051-4.7977-10.85051-10.6966zm25.45071 10.6966c-1.7666 0-3.442-.4269-4.9123-1.1685.2621-.2584.5357-.5281.775-.809.5129-.5955.4331-1.4831-.1709-1.9775-.6041-.5056-1.5045-.427-2.006.1685-.3077.3483-.6383.6854-.9802.9888-2.1769-1.9551-3.556-4.7641-3.556-7.8876 0-3.1236 1.3791-5.93263 3.556-7.89892.3419.3146.6725.64045.9802.98876.2849.32584.6838.49438 1.0942.49438.3191 0 .6496-.11236.9232-.33708.604-.50561.6724-1.38202.1709-1.97752-.2393-.2809-.5129-.55057-.775-.80899 1.4817-.74158 3.1457-1.16854 4.9123-1.16854 5.9838 0 10.8505 4.79775 10.8505 10.69661 0 5.8989-4.8667 10.6966-10.8505 10.6966z"/><path d="m25.3136 9.33755c-.7636.17978-1.2423.93255-1.06 1.69665.1938.809.2964 1.6404.2964 2.4719s-.1026 1.6741-.2964 2.4719c-.1823.7528.2964 1.5169 1.06 1.6854.114.0225.2165.0337.3305.0337.6497 0 1.231-.4382 1.3905-1.0786.2394-1.0225.3648-2.0675.3648-3.1236 0-1.0562-.1254-2.1124-.3762-3.1236-.1823-.75285-.9574-1.22476-1.7096-1.04498z"/></g></svg>

<svg width="42" height="27" viewBox="0 0 42 27" fill="none" xmlns="http://www.w3.org/2000/svg">
<g id="Layer_2" clip-path="url(#clip0_4458_4788)">
<path id="Vector" d="M28.3001 0C25.6217 0 23.1256 0.775281 21.0171 2.08989C18.8288 0.719101 16.3213 0 13.6999 0C6.14328 0 0 6.05618 0 13.5056C0 20.9551 6.14328 27.0112 13.6999 27.0112C16.3213 27.0112 18.8288 26.2921 21.0171 24.9213C23.1256 26.236 25.6217 27.0112 28.3001 27.0112C35.8567 27.0112 42 20.9551 42 13.5056C42 6.05618 35.8567 0 28.3001 0ZM2.84939 13.5056C2.84939 7.60674 7.71615 2.80899 13.6999 2.80899C15.4323 2.80899 17.0963 3.20225 18.6122 3.96629C16.1389 6.41573 14.6003 9.78652 14.6003 13.5056C14.6003 17.2247 16.1389 20.5955 18.6122 23.0449C17.0963 23.809 15.4323 24.2022 13.6999 24.2022C7.71615 24.2022 2.84939 19.4045 2.84939 13.5056ZM28.3001 24.2022C26.5335 24.2022 24.8581 23.7753 23.3878 23.0337C23.6499 22.7753 23.9235 22.5056 24.1628 22.2247C24.6757 21.6292 24.5959 20.7416 23.9919 20.2472C23.3878 19.7416 22.4874 19.8202 21.9859 20.4157C21.6782 20.764 21.3476 21.1011 21.0057 21.4045C18.8288 19.4494 17.4497 16.6404 17.4497 13.5169C17.4497 10.3933 18.8288 7.58427 21.0057 5.61798C21.3476 5.93258 21.6782 6.25843 21.9859 6.60674C22.2708 6.93258 22.6697 7.10112 23.0801 7.10112C23.3992 7.10112 23.7297 6.98876 24.0033 6.76404C24.6073 6.25843 24.6757 5.38202 24.1742 4.78652C23.9349 4.50562 23.6613 4.23595 23.3992 3.97753C24.8809 3.23595 26.5449 2.80899 28.3115 2.80899C34.2953 2.80899 39.162 7.60674 39.162 13.5056C39.162 19.4045 34.2953 24.2022 28.3115 24.2022H28.3001Z" fill="#FFF8F3"/>
<path id="Vector_2" d="M25.3136 9.33755C24.55 9.51733 24.0713 10.2701 24.2536 11.0342C24.4474 11.8432 24.55 12.6746 24.55 13.5061C24.55 14.3376 24.4474 15.1802 24.2536 15.978C24.0713 16.7308 24.55 17.4949 25.3136 17.6634C25.4276 17.6859 25.5301 17.6971 25.6441 17.6971C26.2938 17.6971 26.8751 17.2589 27.0346 16.6185C27.274 15.596 27.3994 14.551 27.3994 13.4949C27.3994 12.4387 27.274 11.3825 27.0232 10.3713C26.8409 9.61845 26.0658 9.14654 25.3136 9.32632V9.33755Z" fill="#FFF8F3"/>
</g>
<defs>
<clipPath id="clip0_4458_4788">
<rect width="42" height="27" fill="white"/>
</clipPath>
</defs>
</svg>
